app/client/src/widgets/wds/WDSCurrencyInputWidget/thumbnail.svg

<svg width="72" height="76" viewBox="0 0 72 76" fill="none" xmlns="http://www.w3.org/2000/svg">
<rect x="8.5" y="26.5" width="55" height="23" rx="2.5" fill="white"/>
<rect x="8.5" y="26.5" width="55" height="23" rx="2.5" stroke="#CDD5DF"/>
<path d="M17 38.5C15.6193 38.5 14.5 37.3807 14.5 36C14.5 34.6193 15.6193 33.5 17 33.5" stroke="#CC3D00" stroke-linecap="round" stroke-linejoin="round"/>
<path d="M22 43.5C23.3807 43.5 24.5 42.3807 24.5 41C24.5 39.6193 23.3807 38.5 22 38.5" stroke="#CC3D00" stroke-linecap="round" stroke-linejoin="round"/>
<path d="M23.5 35.5C23.5 34.3954 22.6046 33.5 21.5 33.5" stroke="#CC3D00" stroke-linecap="round" stroke-linejoin="round"/>
<path d="M14.5 41.5C14.5 42.6046 15.3954 43.5 16.5 43.5" stroke="#CC3D00" stroke-linecap="round" stroke-linejoin="round"/>
<path d="M19.5 31.5V45.5" stroke="#CC3D00" stroke-linecap="round" stroke-linejoin="round"/>
<path d="M17 33.5H21.5M17 38.5H22M16.5 43.5H22" stroke="#CC3D00" stroke-linecap="round" stroke-linejoin="round"/>
<path d="M51.5 43.5001H53.5M55.5 43.5001H53.5M53.5 43.5001V55.4999M51.5 55.4999H55.5" stroke="#6A7585" stroke-linecap="round" stroke-linejoin="round"/>
</svg>

<svg xmlns="http://www.w3.org/2000/svg" width="72" height="76" fill="none"><rect width="55" height="23" x="8.5" y="26.5" fill="#fff" rx="2.5"/><rect width="55" height="23" x="8.5" y="26.5" stroke="#CDD5DF" rx="2.5"/><path stroke="#CC3D00" stroke-linecap="round" stroke-linejoin="round" d="M17 38.5a2.5 2.5 0 0 1 0-5M22 43.5a2.5 2.5 0 0 0 0-5M23.5 35.5a2 2 0 0 0-2-2M14.5 41.5a2 2 0 0 0 2 2M19.5 31.5v14M17 33.5h4.5m-4.5 5h5m-5.5 5H22"/><path stroke="#6A7585" stroke-linecap="round" stroke-linejoin="round" d="M51.5 43.5h2m2 0h-2m0 0v12m-2 0h4"/></svg>
